X: 3760
T: Birlinn Ghoraidh Chrobhain
R: jig
M: 6/8
K: Gmajor
G3 G2A|B2B B3|gg2 g2f|ed2 d3|
G3 G2A|B2B d3|e2e dB2|A2G G3||

